X:1
T:Children at Play
T:01. Children at Play
T:Béla Bartok
T:Based on Hugarian Folk Tunes
C:Bela Bartok
%%score { 1 | 2 }
L:1/8
Q:1/4=92
M:2/4
K:C
V:1 treble nm="Piano" snm="Pno."
V:2 treble 
V:1
"^Allegro,"!p! .!4!g(!4!g.!5!a)(!5!a | !4!g)(!4!g !tenuto!e2) | !3!f(!3!f.!1!d)(!1!d | %3
 .!3!e)(!3!e !tenuto!c2) | !4!g(g.a)(a | .g)(g !tenuto!e2) | .f(f.d)(d | .!3!e)(e !tenuto!c2) | %8
 (!1!c!3!ece | !tenuto!!5!g2) !tenuto!!5!g2 |!<(! (cece | !tenuto!!5!g2) !tenuto!!2!g2 | %12
 .!5!c'!<)!!>(!(!5!c'.!3!a)!3!a | (f2 a2) | .!2!g(!5!gfe)!>)! | (d2 c2) |!p! (cece | %17
 !tenuto!g2) !tenuto!g2 | (cece | !tenuto!!5!g2) !tenuto!!2!g2 | .c'(c'.a)a | (f2 a2) | %22
[Q:1/4=85]"^poco rit." !2!g(!5!gf[Q:1/4=83]"^T"e) |[Q:1/4=80]"^T" (d2 c2) |] %24
V:2
"_sempre legato" !3!E!1!GFG | EGCG | DGFG | CGDG | EGFG | EGCG | DGFG | DGDG | EG z2 | %9
!>(! (!2!d!3!c)(!2!c!3!B) | (!2!BA)!>)! z2 |!>(! (!2!AG)(!2!GF) | (!2!FE)!>)! z2 | %13
 z!<(! (!4!DEF)!<)! | z2 (G2- | GFEC) | z4 |!>(! (!2!dc)(!2!cB) | (!2!BA)!>)! z2 | %19
!>(! (!2!AG)(!2!GF) | (!2!F!>)!E) z2 | z (!4!DEF) | z2 (!>!G2- | GFEC) |] %24

